X:1
T:Shall I seek to ease my grief? - Lichfild
T:#
%%score { 1 | 2 } 3 4 5
L:1/8
Q:1/4=120
M:4/4
K:G
V:1 treble nm="Soprano I" snm="S"
V:2 treble 
V:3 treble nm="Alto" snm="A"
V:4 treble-8 nm="Tenor" snm="T"
V:5 bass nm="Bass" snm="B"
V:1
 G3"^Shall I seek to ease my grief?" A B2 ^c2 | d2 B2 =c2 AA | %2
w: Shall I seek to|ease my grief, shall I|
 B2 c2"^Henry Lichfild\n(fl. 1613 -after 1620)" A2 G2 | G2 F2 G4 |[M:4/4] z4 D2 D2 | G4 z2 d2 | %6
w: seek to ease, to|ease my grief,|shall I|seek to|
 d3 d d2 Bc | d2 e2 d2 c2- | c2 B2 A3 A | B2 GF G2 E2 | D2 G2 E2 Dd- | dd e2 d c2 B | A4 z2 c2 | %13
w: ease my grief, shall I|seek to ease, seek|* to ease my|grief? Shall I seek to|ease my grief, O, shall|* I seek to ease my|grief, O,|
 A2 d2 B3 c | d2 c4 B2 | A3 A B2 GA | B2 c2 B2 AG | F2 G2 G2 F2 | G4 d4- | d4 z2 d2 | c3 A _B2 B2 | %21
w: shall I seek to|ease, seek to|ease my grief, shall I|seek to ease, shall I|seek to ease my|grief~? No,|* my|sight is lost with|
 A4 A2 A2 | F3 G A4 | ^G2 A4 G2 | A2 =F2 E4 | !courtesy!^F2 G4 F2 | G2 B2 A2 G2 | F3 G A2 d2 | %28
w: eye- ing, my|sight is lost|with eye- ing,|lost with eye-|ing. Shall I|speak, O, shall I|speak and beg, and|
 d2 ^c2 d4 | z2 =c2 B2 d2 | c2 B2 A2 (G2- | G2 FE F4) | G4 z4 | z2 d4 A2 | B2 G2 Ec B2 | %35
w: beg re- lief,|O, shall I|speak and beg re\-||lief,|shall I|speak, O, shall I speak|
 A2 d3 c B2 | A4 A4- | A4 G4- | G4 z2 B2 | c2 d2 e2 d2 | c2 B2 c4 | B4 z2 B2 | c2 e2 d4 | %43
w: and beg, and beg|re- lief?|* No,|* my|voice is hoarse, is|hoarse with cry-|ing, is|hoarse with cry-|
 d4 c2 c2- | cB A2 d2 dc | (BAG=F) E2 c2 | B4 A4 | z2 G2 A2 F2 | G2 G2 z2 c2- | cd e4 B2 | %50
w: ing: O, what|* re- mains but on- ly|dy\- * * * ing, but|dy- ing,|but on- ly|dy- ing, what|* re- mains but|
 c3 B AA d2- | d2 c2 B4 | A8 | z2 d4 B2 |[Q:1/4=118] A4[Q:1/4=114] G4 | %55
w: on- ly dy- ing, on\-|* ly dy-|ing,|what re-|mains but|
[Q:1/4=111] F4[Q:1/4=107] G4- |[Q:1/4=104] G4[Q:1/4=101] F4 |[Q:1/4=100] !fermata!G8 |] %58
w: on- ly|* dy-|ing?|
V:2
 z2 GF G2 E2 | D2 G2 E2 Dd- | dd e2 d c2 B | A4 z2 c2 |[M:4/4] A2 d2 B3 c | d2 c4 B2 | A3 A B2 GA | %7
w: Shall I seek to|ease my grief, O, shall|* I seek to ease my|grief, O,|shall I seek to|ease, seek to|ease my grief, shall I|
 B2 c2 B2 AG | F2 G2 G2 F2 | G2 GA B2 ^c2 | d2 B2 =c2 AA | B2 c2 A2 G2 | G2 F2 G4 | z4 D2 D2 | %14
w: seek to ease, shall I|seek to ease my|grief? Shall I seek to|ease my grief, shall I|seek to ease, to|ease my grief,|shall I|
 G4 z2 d2 | d3 d d2 Bc | d2 e2 d2 c2- | c2 B2 A3 A | B8 | A8 | z8 | z2 =F2 E2 A2 | A2 d2 d2 c2 | %23
w: seek to|ease my grief, shall I|seek to ease, seek|* to ease my|grief~?|No,||my sight is|lost, my sight is|
 B2 A2 B4 | A8 | z2 d4 A2 | B2 G2 Ec B2 | A2 d3 c B2 | A4 F3 G | A2 A2 D4 | z2 d2 c2 B2 | A6 A2 | %32
w: lost with eye-|ing.|Shall I|speak, O, shall I speak|and beg, and beg|re- lief, and|beg re- lief,|and beg re-|lief, re-|
 B4 z2 A2- | AG G4 F2 | G2 B2 A2 G2 | F3 G A2 d2 | d2 ^c2 d4- | d4 d4- | d4 z4 | z2 B2 c2 B2 | %40
w: lief, speak|* and beg re-|lief, O, shall I|speak and beg and|beg re- lief?|* No,||my voice is|
 c2 d2 e4 | d4 z2 d2 | c4 A4 | B4 A2 G2 | d2 d2 z4 | z8 | z2 d4 A2 | B2 c2 A2 d2 | (dcBA G=F) E2 | %49
w: hoarse with cry-|ing, is|hoarse with|cry- ing, with|cry- ing:||what re-|mains but on- ly|dy\- * * * * * ing,|
 c4 B2 e2- | ed c3 (B A2) | (^G2 A4 G2) | A2 =F2 E3 E | !courtesy!^F4 G2 d2 | e6 e2 | d8- | d8 | %57
w: what re- mains|* but on- ly *|dy\- * *|ing, but on- ly|dy- ing, but|on- ly|dy\-||
 !fermata!B8 |] %58
w: ing?|
V:3
 z8 | z4 z2 FF | G2 E2 =F2 D2 | D2 AA G2 E2 |[M:4/4] =F2 F2 G2 G2- | GD E2 F2 G2- | G2 F2 G4 | %7
w: |Shall I|seek to ease my|grief, shall I seek to|ease my grief, shall|* I seek to ease|* my grief,|
 D2 C2 G=F E2 | D4 D2 D2 | D4 z4 | z4 z2 FF | G2 E2 =F2 D2 | D2 AA G2 E2 | =F2 F2 G2 G2- | %14
w: my grief, shall I seek|to ease my|grief?|Shall I|seek to ease my|grief, shall I seek to|ease my grief, shall|
 GD E2 F2 G2- | G2 F2 G4 | D2 C2 G=F E2 | D4 D2 D2 | D8 | F8 | z2 A2 G3 =F | E2 D2 E4 | %22
w: * I seek to ease|* my grief,|my grief, shall I seek|to ease my|grief~?|No,|my sight is|lost with eye-|
 D2 A,4 E2- | E2 C2 B,4 | E2 D4 ^C2 | D4 D4 | z2 G,2 C2 G,2 | D3 E F2 G2 | A4 z4 | z4 z2 G2 | %30
w: ing, my sight|* is lost,|is lost with|eye- ing.|O, shall I|speak and beg re-|lief,|O,|
 C2 D2 E2 B,C | D3 D A,2 A,2 | G,2 D4 A,2 | B,2 B,2 A,4 | G,3 G, C2 D2 | D4 z2 G2- | %36
w: shall I speak, shall I|speak and beg re-|lief, shall I|speak and beg|re- lief, O, shall|I speak|
 G=F E2 ^F2 D2- | DE F2 G4- | G4 z4 | z2 G2 G2 G2 | G2 G2 G4 | G2 G2 D4 | E2 E2 z2 A2 | %43
w: * and beg, and beg|* re- lief? No,||my voice is|hoarse with cry-|ing, hoarse with|cry- ing, is|
 G2 D2 EF G2- | G2 F2 G2 G2 | (G=FEF G2) A2- | AG (G4 F2) | G4 z2 A2 | G2 D2 (E3 D | CB, A,2) B,4 | %50
w: hoarse with cry- ing: what|* re- mains but|dy\- * * * * ing,|* on- ly *|dy- ing,|but on- ly *|* * * dy-|
 A,3 B, C2 D2 | E8 | E2 D4 ^C2 | D6 D2 | C4 C4- | C4 B,4 | A,8 | !fermata!G,8 |] %58
w: ing, on- ly dy-|ing,|but on- ly|dy- ing,|but on\-|* ly|dy-|ing?|
V:4
 z8 | z2 GG c2 d2 | G2 c2 =F2 G2 | d3 d G4 |[M:4/4][K:treble-8] z2 A2 B3 A | G2 cB A2 G2 | %6
w: |Shall I seek to|ease my grief, to|ease my grief,|to ease my|grief, shall I seek to|
 A3 A G4 | z2 GA B2 cB | A2 G2 A3 A | G4 z4 | z2 GG c2 d2 | G2 c2 =F2 G2 | d3 d G4 | z2 A2 B3 A | %14
w: ease my grief,|shall I seek, shall I|seek to ease my|grief?|Shall I seek to|ease my grief, to|ease my grief,|to ease my|
 G2 cB A2 G2 | A3 A G4 | z2 GA B2 cB | A2 G2 A3 A | G8 | A8 | z2 =f2 e2 d2 | ^c2 d2 d2 c2 | %22
w: grief, shall I seek to|ease my grief,|shall I seek shall I|seek to ease my|grief~?|No,|my sight is|lost, is lost with|
 d4 e4- | e4 e4 | A6 A2 | A2 B2 A4 | G4 z4 | z8 | z2 A2 D3 E | FG A2 G2 B2 | e2 d2 z4 | %31
w: eye- ing,|* my|sight is|lost with eye-|ing.||O, shall I|speak and beg, and beg|re- lief,|
 z2 d2 d2 d2 | d2 B4 c2 | d2 G2 D3 D | d4 z2 G2 | A3 A d4 | z2 A4 F2- | FG A2 B4- | B4 z4 | %39
w: and beg re-|lief, shall I|speak and beg re-|lief, and|beg re- lief,|and beg|* re- lief? No,||
 z2 d2 c2 d2 | e2 d2 c4 | d4 z2 B2 | A2 G4 F2 | G2 B2 c2 e2 | d3 c BA G2 | G2 c3 B A2 | B3 c d4 | %47
w: my voice is|hoarse with cry-|ing, is|hoarse with cry-|ing: O, what re-|mains but on- ly dy-|ing, what re- mains,|what re- mains|
 d2 e2 c2 (dc | BA) G4 G2 | AB (cd e3 d | cB) A4 A2 | B2 A2 B4 | E2 =FG A4 | A2 A2 B2 G2 | %54
w: but on- ly dy\- *|* * ing, but|on- ly dy\- * * *|* * ing, but|on- ly dy-|ing, on- ly dy-|ing, but on- ly|
 E4 G2 cB | A4 G4 | d8 | !fermata!d8 |] %58
w: dy- ing, on- ly|dy- ing,|dy-|ing?|
V:5
 z8 | z8 | z8 | z2 D,D, E,2 C,2 |[M:4/4] =F,2 D,2 G,2 G,,A,, | B,,2 C,2 D,4- | D,2 D,2 G,,2 G,2- | %7
w: |||Shall I seek to|ease my grief, shall I|seek to ease|* my grief, O,|
 G,2 E,=F, G,2 C,2 | D,6 D,2 | G,,4 z4 | z8 | z8 | z2 D,D, E,2 C,2 | =F,2 D,2 G,2 G,,A,, | %14
w: * shall I seek to|ease my|grief?|||Shall I seek to|ease my grief, shall I|
 B,,2 C,2 D,4- | D,2 D,2 G,,2 G,2- | G,2 E,=F, G,2 C,2 | D,6 D,2 | G,,8 | D,8 | z2 =F,2 G,3 G, | %21
w: seek to ease|* my grief, O,|* shall I seek to|ease my|grief~?|No,|my sight is|
 A,6 A,2 | D,4 A,,4 | E,6 E,2 | ^C,2 D,2 A,,4 | D,8 | z8 | z8 | z4 z2 D,2- | D,2 A,,2 B,,2 G,,2 | %30
w: lost, my|sight is|lost, is|lost with eye-|ing.|||Shall|* I speak and|
 A,,2 B,,2 C,2 G,,2 | D,6 D,2 | G,,4 z4 | z8 | z2 G,,2 C,2 G,,2 | D,3 E, F,2 G,2 | A,3 A, D,4- | %37
w: beg re- lief, and|beg re-|lief,||O, shall I|speak and beg, and|beg re- lief?|
 D,4 G,,4- | G,,4 z4 | z2 G,,2 C,2 G,,2 | C,2 G,,2 C,4 | G,4 z2 G,2 | C,3 C, D,4 | G,,4 z4 | z8 | %45
w: * No,||my voice is|hoarse with cry-|ing, is|hoarse with cry-|ing:||
 z8 | z4 z2 D,2 | G,2 E,2 =F,2 D,2 | G,3 =F, (E,D,C,B,, | A,,4) ^G,,4 | A,,4 =F,4 | E,6 E,2 | %52
w: |O,|what re- mains but|on- ly dy\- * * *|* ing,|what re-|mains but|
 ^C,2 D,2 A,,4 | D,4 B,,4 | C,6 C,2 | D,8- | D,8 | !fermata!G,,8 |] %58
w: on- ly dy-|ing, but|on- ly|dy\-||ing?|

